T: Garrett Barry's
M: 6/8
L: 1/8
K: Gmaj
|: DEF ~G3|AGE c2A|dcA d2e|{e}fed {B}cAG|
~F3 GFG|AGE c{cde}|{e}dcA GEA|DED D2 A:|
|:dcA ~d2e|{e}fed [ee]2d|cAB ~c2d|efd ecA|
dcA ~d2e|fed (3efg e|dcA GEA|DED D2 A:|
